X:0733
T:Hoddom Castle.
M:6/8
L:1/8
Q:3/8=104
I: :: (1) :| (2) ||
Z:Jack Campin * www.campin.me.uk * 2009
K:D
A    | d2  d Td>ef | g2  e/d/ cBA  | d>ed (dg).b    |   a>ba gTfe     |
      (fd).d (dB).B|(ge).e   (ec).c|Td>ef  edc      |   ddd  d2      :|
Tf/g/|(af).f (fd).d|(ge).e   (ec).c|Td>ef  ee/f/g/d/|   cAA  ABc      |
       ddd    Bee  |(cf).f   (dg).g| egg   fed      |[1 eAc  d/c/f/e/:|\
                                                     [2 eAc  d2      |]
<end>
<start>
